X: 106
T: Missa Pascale / Sanctus
N: Derived from Rue1023d-Missa_Pascale-Sanctus.krn
C: Pierre de la Rue
%%abc-version 2.0
%%abcx-abcm2ps-target-version 5.9.1 (29 Sep 2008)
%%abc-creator hum2abc beta
%%abcx-conversion-date 2019/02/17 08:01:14
%%abc-edited-by Jesse Rodin
%%abc-edited-by Chris Gage 04-23-2013
%%abcx-initial-encoding-date 2013/08/01/
%%humdrum-veritas 3184467448
%%humdrum-veritas-data 1461454634
%%linebreak <none>
%%barnumbers 0
L: 1/4
M: 3/1
Q: 1/2=120
V: 1 clef=treble
V: 2 clef=treble-8
V: 3 clef=treble-8
V: 4 clef=treble-8
V: 5 clef=bass
K: C
[V:1] G8G4 | 
[V:2] z12 | 
[V:3] z12 | 
[V:4] G8c4- | 
[V:5] z12 | 
[V:1] c8A4 | 
[V:2] z12 | 
[V:3] z12 | 
[V:4] c4A6c2- | 
[V:5] z12 | 
[V:1] G3AB2A4GF | 
[V:2] z12 | 
[V:3] z12 | 
[V:4] c2BAG2F2A2B2 | 
[V:5] z12 | 
[V:1] E4z2c4A2- | 
[V:2] z4c8 | 
[V:3] z12 | 
[V:4] c2BAG4A4- | 
[V:5] C,8F,4- | 
[V:1] A2F3ED2d2d2- | 
[V:2] f8d4- | 
[V:3] z12 | 
[V:4] A4d2d3cBA | 
[V:5] F,4D,8 | 
[V:1] dcBAG2c2cBAG | 
[V:2] d4g3fedc2 | 
[V:3] z12 | 
[V:4] G3AB2G2c4- | 
[V:5] G,2G,3F,E,D,C,2F,2- | 
[V:1] A2B2A2G3^FF2 | 
[V:2] f3efd2cd4 | 
[V:3] z12 | 
[V:4] c2d3cBGA4 | 
[V:5] F,E,D,C,D,2E,2D,4 | 
[V:1] G4z4G4 | 
[V:2] z2d2e2g4fe | 
[V:3] G12- | 
[V:4] B12 | 
[V:5] G,,8G,,4 | 
[V:1] B8c4 | 
[V:2] d8g4 | 
[V:3] G8G4 | 
[V:4] z12 | 
[V:5] z2G,4F,2E,4 | 
[V:1] d8d4 | 
[V:2] f8d4 | 
[V:3] A8A4 | 
[V:4] z2d2A2d3cA2- | 
[V:5] D,8D,4 | 
[V:1] c2A2c2BAG2c2 | 
[V:2] e12 | 
[V:3] c12 | 
[V:4] A2GFE6E2 | 
[V:5] A,,8C,3B,, | 
[V:1] B2G2A2GFE2A2- | 
[V:2] d3Bc2d2e4 | 
[V:3] z4z4c4 | 
[V:4] GFEDE8 | 
[V:5] G,,2B,,2A,,4A,,4 | 
[V:1] A2A2F3GA2B2- | 
[V:2] f4d3ef2g2- | 
[V:3] d6A2c2d2 | 
[V:4] D3EFGA4G2- | 
[V:5] D,8z4 | 
[V:1] B2c3BAGA4 | 
[V:2] gfecc3BA4 | 
[V:3] B2e4d4^c2 | 
[V:4] G2A3GF2E4 | 
[V:5] z4A,,8 | 
[V:1] F3GA2D2z2A2 | 
[V:2] A6G2A4 | 
[V:3] d12 | 
[V:4] D3EF2G4^F2 | 
[V:5] D,8D,4 | 
[V:1] B2d4cBA2B2 | 
[V:2] G4z4d4 | 
[V:3] z12 | 
[V:4] G4z4z4 | 
[V:5] G,,4D,3E,F,2G,2 | 
[V:1] E2G4A6 | 
[V:2] e6c2f4 | 
[V:3] c8d4- | 
[V:4] z12 | 
[V:5] C,3D,E,2F,2D,2F,2 | 
[V:1] B6c4GA | 
[V:2] d2g3fedc3B | 
[V:3] d4e8 | 
[V:4] z12 | 
[V:5] G,3F,E,D,C,6 | 
[V:1] Bcd4c4B2 | 
[V:2] A2G2F2f2g3f | 
[V:3] d2B2c4d4 | 
[V:4] z4z4G4 | 
[V:5] D,2G,,2A,,4G,,2G,2 | 
[V:1] c4z4z4 | 
[V:2] e2fedcc4B2 | 
[V:3] c4z4z4 | 
[V:4] c3BA2G4F2 | 
[V:5] A,3G,F,2E,2D,4 | 
[V:1] c6c2c4 | 
[V:2] c12 | 
[V:3] e8e4 | 
[V:4] G8G4 | 
[V:5] C,8C,4 | 
[V:1] B6cBc2A2- | 
[V:2] z12 | 
[V:3] d8c4 | 
[V:4] G8E4 | 
[V:5] G,,8A,,4 | 
[V:1] A2GFG4F3G | 
[V:2] z4e4f4- | 
[V:3] z2d4c2d2A2- | 
[V:4] E2A4G2A4 | 
[V:5] C,2D,2E,4D,4 | 
[V:1] A2_B4A3GG2 | 
[V:2] f2f2f4d3e | 
[V:3] A2d4c2B4 | 
[V:4] F2D2F4G4 | 
[V:5] z12 | 
[V:1] A4A2A4G2 | 
[V:2] f6edc3d | 
[V:3] A12 | 
[V:4] F4z4z4 | 
[V:5] D,4D,2F,4E,2 | 
[V:1] F2E2D4D4 | 
[V:2] d2A2d3cBAB2 | 
[V:3] z4z4d4 | 
[V:4] z12 | 
[V:5] D,2C,2B,,4B,,4 | 
[V:1] C4z4z4 | 
[V:2] c2A2c2d2e4 | 
[V:3] e3dc2BAG2c2- | 
[V:4] A6GFE3F | 
[V:5] A,,6B,,2C,3D, | 
[V:1] z4z4A4 | 
[V:2] e2d4g3^f^f2 | 
[V:3] c2G4B2A4 | 
[V:4] GABcd8 | 
[V:5] E,F,G,2G,,4D,4 | 
[V:1] B2G3FEDE2A2- | 
[V:2] g3fedcBA2f2- | 
[V:3] G4z2c4c2- | 
[V:4] B4G2A3GFE | 
[V:5] G,,4z4z4 | 
[V:1] A2A2G8 | 
[V:2] fecde8 | 
[V:3] c2c4B4c2- | 
[V:4] F4E8 | 
[V:5] z12 | 
[V:1] F2D2FGABc3B | 
[V:2] z2f4f2e2c2- | 
[V:3] c2d4c4A2 | 
[V:4] A3FF4z4 | 
[V:5] z2D,3E,F,G,A,2A,,2- | 
[V:1] AGA4G3^FF2 | 
[V:2] cdefg2d3cA2 | 
[V:3] c3BG2B2A4 | 
[V:4] z4z4F4 | 
[V:5] A,,B,,C,D,E,F,G,2D,4 | 
[V:1] G12- | 
[V:2] B3cd8 | 
[V:3] G12- | 
[V:4] D2E2D8 | 
[V:5] G,,12 | 
[V:1] G12 ||  
[V:2] d12 ||  
[V:3] G12 ||  
[V:4] D12 ||  
[V:5] G,,12 ||  
[V:1]  [K:C] [K:clef=treble][M:2/1]z8 | 
[V:2]  [K:C] [K:clef=treble-8][M:2/1]z4d4- | 
[V:3]  [K:C] [K:clef=treble-8][M:2/1]z8 | 
[V:4]  [K:C] [K:clef=treble-8][M:2/1]z8 | 
[V:5]  [K:C] [K:clef=bass][M:2/1]G,8 | 
[V:1] z8 | 
[V:2] d2cBA2c2 | 
[V:3] z8 | 
[V:4] z8 | 
[V:5] F,4F,4 | 
[V:1] z8 | 
[V:2] B2G4F2 | 
[V:3] z8 | 
[V:4] z8 | 
[V:5] G,2B,2A,4 | 
[V:1] z4A4- | 
[V:2] G2B2ABcd | 
[V:3] z8 | 
[V:4] z8 | 
[V:5] G,4F,2E,D, | 
[V:1] A2GFE2G2 | 
[V:2] e2d4c2 | 
[V:3] z8 | 
[V:4] z8 | 
[V:5] C,2D,2E,4 | 
[V:1] F2D4C2 | 
[V:2] d2f2e4 | 
[V:3] z8 | 
[V:4] z8 | 
[V:5] D,4A,,4 | 
[V:1] D2F2EFGA | 
[V:2] d4c2BA | 
[V:3] z8 | 
[V:4] z8 | 
[V:5] z8 | 
[V:1] B2A4^G2 | 
[V:2] G2A2B4 | 
[V:3] z8 | 
[V:4] z8 | 
[V:5] z4z2E,2 | 
[V:1] A8 | 
[V:2] A4z2d2- | 
[V:3] z8 | 
[V:4] z8 | 
[V:5] F,2E,D,C,2D,2 | 
[V:1] z8 | 
[V:2] d2c2d2f2- | 
[V:3] z8 | 
[V:4] z8 | 
[V:5] E,4z2D,2- | 
[V:1] z8 | 
[V:2] f2ede2f2- | 
[V:3] z8 | 
[V:4] z8 | 
[V:5] D,2C,B,,C,2D,2- | 
[V:1] z2A4G2 | 
[V:2] fedcB4 | 
[V:3] z8 | 
[V:4] z8 | 
[V:5] D,C,D,2E,4 | 
[V:1] A2c4BA | 
[V:2] A8 | 
[V:3] z8 | 
[V:4] z8 | 
[V:5] A,,2A,4G,F, | 
[V:1] B2c3BAG | 
[V:2] z8 | 
[V:3] z8 | 
[V:4] z8 | 
[V:5] G,2A,3G,F,E, | 
[V:1] F4E2c2- | 
[V:2] z4z2e2- | 
[V:3] z8 | 
[V:4] z8 | 
[V:5] D,4C,4- | 
[V:1] c2BAB2cB | 
[V:2] e2dcd2e2- | 
[V:3] z8 | 
[V:4] z8 | 
[V:5] C,4z2C,2 | 
[V:1] AGG4^F2 | 
[V:2] edcBA4 | 
[V:3] z8 | 
[V:4] z8 | 
[V:5] C,4D,4 | 
[V:1] G8 | 
[V:2] G4z2c2 | 
[V:3] z8 | 
[V:4] z8 | 
[V:5] E,3F,G,2C,2- | 
[V:1] z8 | 
[V:2] c4d4 | 
[V:3] z8 | 
[V:4] z8 | 
[V:5] C,2F,4E,D, | 
[V:1] z4z2G2 | 
[V:2] e3fg2c2- | 
[V:3] z8 | 
[V:4] z8 | 
[V:5] C,2C,2C,3D, | 
[V:1] G4A4 | 
[V:2] cdB2A4 | 
[V:3] z8 | 
[V:4] z8 | 
[V:5] E,F,G,4^F,2 | 
[V:1] B3cd2G2- | 
[V:2] G4z2e2- | 
[V:3] z8 | 
[V:4] z8 | 
[V:5] G,8- | 
[V:1] G2FEGFGA | 
[V:2] e2dcedef | 
[V:3] z8 | 
[V:4] z8 | 
[V:5] G,8- | 
[V:1] B2c4B2 | 
[V:2] g2e2d4 | 
[V:3] z8 | 
[V:4] z8 | 
[V:5] G,8 | 
[V:1] c4z2A2 | 
[V:2] c8 | 
[V:3] z8 | 
[V:4] z8 | 
[V:5] z8 | 
[V:1] B2G2A2GF | 
[V:2] z2e2f2d2 | 
[V:3] z8 | 
[V:4] z8 | 
[V:5] z8 | 
[V:1] EFGABGA2- | 
[V:2] e2dcB2c2 | 
[V:3] z8 | 
[V:4] z8 | 
[V:5] z8 | 
[V:1] A2GFE4 | 
[V:2] A2d4^c2 | 
[V:3] z8 | 
[V:4] z8 | 
[V:5] z4z2A,2 | 
[V:1] z2D2F2ED | 
[V:2] d4z4 | 
[V:3] z8 | 
[V:4] z8 | 
[V:5] B,2G,2A,2G,F, | 
[V:1] CDEFGEF2- | 
[V:2] z8 | 
[V:3] z8 | 
[V:4] z8 | 
[V:5] E,F,G,A,B,G,A,2- | 
[V:1] FED4^C2 | 
[V:2] z4z2e2 | 
[V:3] z8 | 
[V:4] z8 | 
[V:5] A,2G,F,E,4 | 
[V:1] D2A2c4 | 
[V:2] f2edcdef | 
[V:3] z8 | 
[V:4] z8 | 
[V:5] D,E,F,G,A,4 | 
[V:1] B2A4GF | 
[V:2] gef3ed2- | 
[V:3] z8 | 
[V:4] z8 | 
[V:5] G,2A,2F,3D, | 
[V:1] G4F4 | 
[V:2] d2^c2d4 | 
[V:3] z8 | 
[V:4] z8 | 
[V:5] E,4D,4 | 
[V:1] z2A2B2A2- | 
[V:2] f4g2f2- | 
[V:3] z8 | 
[V:4] z8 | 
[V:5] z8 | 
[V:1] A2d4c2 | 
[V:2] f2ede4 | 
[V:3] z8 | 
[V:4] z8 | 
[V:5] z4z2A,2 | 
[V:1] d3cA2_B2- | 
[V:2] d8- | 
[V:3] z8 | 
[V:4] z8 | 
[V:5] _B,3A,F,2G,2- | 
[V:1] B2AGF3G | 
[V:2] d8 | 
[V:3] z8 | 
[V:4] z8 | 
[V:5] G,2F,E,D,4- | 
[V:1] A2D3EFG | 
[V:2] z2A2B2A2- | 
[V:3] z8 | 
[V:4] z8 | 
[V:5] D,4D,3E, | 
[V:1] A2_B4AG | 
[V:2] A2d4c2 | 
[V:3] z8 | 
[V:4] z8 | 
[V:5] F,2G,2E,4 | 
[V:1] F4F4- | 
[V:2] d3cA2_B2- | 
[V:3] z8 | 
[V:4] z8 | 
[V:5] D,8 | 
[V:1] F4F4- | 
[V:2] B2AGF3G | 
[V:3] z8 | 
[V:4] z8 | 
[V:5] D,8 | 
[V:1] F8- | 
[V:2] A2D3EFG | 
[V:3] z8 | 
[V:4] z8 | 
[V:5] D,8- | 
[V:1] F8- | 
[V:2] A2_B4AG | 
[V:3] z8 | 
[V:4] z8 | 
[V:5] D,8- | 
[V:1] F8 ||  
[V:2] A8 ||  
[V:3] z8 ||  
[V:4] z8 ||  
[V:5] D,8 ||  
[V:1]  [K:C] [K:clef=treble][M:2/1]G8 | 
[V:2]  [K:C] [K:clef=treble-8][M:2/1]d4d4 | 
[V:3]  [K:C] [K:clef=treble-8][M:2/1]G8- | 
[V:4]  [K:C] [K:clef=treble-8][M:2/1]D8 | 
[V:5]  [K:C] [K:clef=bass][M:2/1]G,,8- | 
[V:1] G6A2 | 
[V:2] B3cd2e2- | 
[V:3] G8 | 
[V:4] E4D2G2- | 
[V:5] G,,8 | 
[V:1] B2c3BB2 | 
[V:2] e2dcd4 | 
[V:3] G8- | 
[V:4] G2FED4 | 
[V:5] G,,8 | 
[V:1] c6BA | 
[V:2] c8 | 
[V:3] G8 | 
[V:4] E8- | 
[V:5] C,8- | 
[V:1] G8 | 
[V:2] e8- | 
[V:3] c8- | 
[V:4] E8 | 
[V:5] C,8 | 
[V:1] z4c4- | 
[V:2] e8 | 
[V:3] c8 | 
[V:4] z4A4- | 
[V:5] A,,8 | 
[V:1] c4c4 | 
[V:2] e8- | 
[V:3] A8 | 
[V:4] A2GFE4- | 
[V:5] z4A,,4- | 
[V:1] A6Bc | 
[V:2] e4e4 | 
[V:3] z4A4- | 
[V:4] E4A4 | 
[V:5] A,,4C,4 | 
[V:1] d4d4 | 
[V:2] d4B4 | 
[V:3] A4G4 | 
[V:4] D6E2 | 
[V:5] B,,8 | 
[V:1] c8 | 
[V:2] c8 | 
[V:3] A8 | 
[V:4] E6D2 | 
[V:5] A,,6B,,2 | 
[V:1] c4A4 | 
[V:2] z8 | 
[V:3] G4F4 | 
[V:4] E4F4 | 
[V:5] C,4D,4 | 
[V:1] B2G2A4 | 
[V:2] z4c4 | 
[V:3] G4F4 | 
[V:4] D2D4C2 | 
[V:5] G,,2B,,2A,,4 | 
[V:1] B4c4 | 
[V:2] B4e2f2 | 
[V:3] G4A4 | 
[V:4] D2E2z2A2 | 
[V:5] G,,2G,4F,2 | 
[V:1] B2G4A2- | 
[V:2] d2e4e2 | 
[V:3] B4c4 | 
[V:4] G2E6 | 
[V:5] G,2G,2C,4 | 
[V:1] AG^FEF4 | 
[V:2] d8 | 
[V:3] A8 | 
[V:4] F3ED4 | 
[V:5] D,8 | 
[V:1] G8- | 
[V:2] B3cd2G2- | 
[V:3] G8- | 
[V:4] D8 | 
[V:5] G,,8- | 
[V:1] G8 | 
[V:2] G2d4cB | 
[V:3] G8 | 
[V:4] z8 | 
[V:5] G,,8 | 
[V:1] z8 | 
[V:2] d2cBA4 | 
[V:3] z8 | 
[V:4] z2G4F2 | 
[V:5] z8 | 
[V:1] z2G4F2 | 
[V:2] G2d2c2A2 | 
[V:3] z8 | 
[V:4] G2B2A2c2 | 
[V:5] z8 | 
[V:1] G2B2A2c2 | 
[V:2] G2d2z2cd | 
[V:3] z8 | 
[V:4] B2G2A4 | 
[V:5] z2G,4F,2 | 
[V:1] B2G2A4 | 
[V:2] efg4^f2 | 
[V:3] z8 | 
[V:4] B4c4 | 
[V:5] G,2B,2A,4 | 
[V:1] B8 | 
[V:2] g4G4 | 
[V:3] B8- | 
[V:4] d8- | 
[V:5] G,8 | 
[V:1] z4d4 | 
[V:2] z8 | 
[V:3] B8 | 
[V:4] d4d4 | 
[V:5] G,4G,4 | 
[V:1] c6B2 | 
[V:2] z8 | 
[V:3] c8- | 
[V:4] e2A4B2 | 
[V:5] C,2A,4G,2 | 
[V:1] A2GFG4 | 
[V:2] z8 | 
[V:3] c8 | 
[V:4] c2A4G2 | 
[V:5] F,3E,/D,/E,4 | 
[V:1] F3GA2D2- | 
[V:2] z8 | 
[V:3] d8 | 
[V:4] A8 | 
[V:5] D,8- | 
[V:1] D2d3cBA | 
[V:2] z8 | 
[V:3] d6c2 | 
[V:4] A6GF | 
[V:5] D,8 | 
[V:1] G2A4^G2 | 
[V:2] z4e4 | 
[V:3] B2A2B4 | 
[V:4] G2F2E4 | 
[V:5] z4E,4 | 
[V:1] A8 | 
[V:2] c2d4c2 | 
[V:3] A6Bc | 
[V:4] z2A4G2 | 
[V:5] F,6E,2 | 
[V:1] z4B4 | 
[V:2] B2A3^G^G2 | 
[V:3] d4d4 | 
[V:4] F2E2D4 | 
[V:5] D,2C,2B,,4 | 
[V:1] c6BA | 
[V:2] A6G2 | 
[V:3] c4A2c2 | 
[V:4] E8 | 
[V:5] A,,4C,4 | 
[V:1] B2G2E2G2- | 
[V:2] G8- | 
[V:3] d2e4d2- | 
[V:4] D2G6 | 
[V:5] G,,8- | 
[V:1] G2FED4 | 
[V:2] G8 | 
[V:3] d2c4B2 | 
[V:4] E2DCD4 | 
[V:5] G,,8 | 
[V:1] E4z4 | 
[V:2] G8- | 
[V:3] c4z4 | 
[V:4] C2E4D2 | 
[V:5] z2C,4B,,2 | 
[V:1] z2G3FD2 | 
[V:2] G8 | 
[V:3] z2c4B2 | 
[V:4] E2C2D4 | 
[V:5] C,4G,,4 | 
[V:1] E2C2G4- | 
[V:2] z4G4 | 
[V:3] A2c4G2- | 
[V:4] C2E4D2 | 
[V:5] z2C,4B,,2 | 
[V:1] G4G4 | 
[V:2] G6AB | 
[V:3] G2c4B2 | 
[V:4] E2C2D4 | 
[V:5] C,4G,,4 | 
[V:1] E3FG2E2 | 
[V:2] c2A2G4 | 
[V:3] A2c4G2- | 
[V:4] C2E3FG2 | 
[V:5] z2C,3D,E,2 | 
[V:1] G2D2A4 | 
[V:2] c2B2A3G | 
[V:3] G2d4c2 | 
[V:4] E2F2E4 | 
[V:5] C,2D,2A,,4 | 
[V:1] z2A3Bc2 | 
[V:2] F4A4- | 
[V:3] B2d4A2- | 
[V:4] D2F4E2 | 
[V:5] z2D,4C,2 | 
[V:1] F3GA4 | 
[V:2] A4A4 | 
[V:3] A2d4c2 | 
[V:4] F2D2E4 | 
[V:5] D,4A,,4 | 
[V:1] z2A6 | 
[V:2] F2A2B2c2 | 
[V:3] B2d4A2- | 
[V:4] D2F4E2 | 
[V:5] z2D,4C,2 | 
[V:1] F2A2E2GF | 
[V:2] A4G4 | 
[V:3] A2c4B2 | 
[V:4] F2E4D2 | 
[V:5] D,2A,,2C,2G,,2 | 
[V:1] EDG4^F2 | 
[V:2] z4z2d2 | 
[V:3] A2G2A4 | 
[V:4] C2D2E2F2 | 
[V:5] A,,2B,,2C,2D,2 | 
[V:1] G4z4 | 
[V:2] B2G2B2c2 | 
[V:3] G8 | 
[V:4] D2B3AG2- | 
[V:5] G,,2G,3F,E,2 | 
[V:1] z2d3cB2 | 
[V:2] d4B3c | 
[V:3] z4d4- | 
[V:4] G2^F2G4 | 
[V:5] D,4G,,4 | 
[V:1] A6B2- | 
[V:2] def4f2 | 
[V:3] d4d4 | 
[V:4] z4F4 | 
[V:5] D,8 | 
[V:1] BAG4FE | 
[V:2] e4e4 | 
[V:3] B4c4 | 
[V:4] G4E4 | 
[V:5] E,4C,4 | 
[V:1] F2G4^F2 | 
[V:2] d8 | 
[V:3] A8 | 
[V:4] A4F2D2 | 
[V:5] D,8 | 
[V:1] G8- | 
[V:2] B2G2B3c | 
[V:3] G8- | 
[V:4] E4D4- | 
[V:5] G,,8- | 
[V:1] G8 ||  
[V:2] d8 ||  
[V:3] G8 ||  
[V:4] D8 ||  
[V:5] G,,8 ||  
[V:1]  [K:C] [K:clef=treble][M:2/1]z8 | 
[V:2]  [K:C] [K:clef=treble-8][M:2/1]z8 | 
[V:3]  [K:C] [K:clef=treble-8][M:2/1]z8 | 
[V:4]  [K:C] [K:clef=treble-8][M:2/1]G4G2B2- | 
[V:5]  [K:C] [K:clef=bass][M:2/1]z8 | 
[V:1] z8 | 
[V:2] z8 | 
[V:3] z8 | 
[V:4] B2AGBcde | 
[V:5] G,4E,2F,2- | 
[V:1] z8 | 
[V:2] z8 | 
[V:3] z8 | 
[V:4] d2c4B2 | 
[V:5] F,E,D,C,D,4 | 
[V:1] z8 | 
[V:2] z8 | 
[V:3] z8 | 
[V:4] c2BAG4 | 
[V:5] C,4z2C,2- | 
[V:1] z8 | 
[V:2] z8 | 
[V:3] z8 | 
[V:4] A4F2G2- | 
[V:5] C,2B,,A,,C,D,E,F, | 
[V:1] z8 | 
[V:2] z8 | 
[V:3] z8 | 
[V:4] GFEDE4 | 
[V:5] E,2D,4^C,2 | 
[V:1] z8 | 
[V:2] z8 | 
[V:3] z8 | 
[V:4] D4z2F2- | 
[V:5] D,8 | 
[V:1] z8 | 
[V:2] z8 | 
[V:3] z8 | 
[V:4] F2EDFGAB | 
[V:5] z2D,2B,,2C,2- | 
[V:1] z8 | 
[V:2] z8 | 
[V:3] z8 | 
[V:4] A2G2z2c2 | 
[V:5] C,B,,A,,G,,A,,4 | 
[V:1] z8 | 
[V:2] z8 | 
[V:3] z8 | 
[V:4] B2G2A2B2- | 
[V:5] G,,4C,2D,2 | 
[V:1] z8 | 
[V:2] z8 | 
[V:3] z8 | 
[V:4] B2G2A2B2 | 
[V:5] E,4C,2D,2 | 
[V:1] z8 | 
[V:2] z8 | 
[V:3] z8 | 
[V:4] E2z2E3F | 
[V:5] E,2A,,3B,,C,D, | 
[V:1] z8 | 
[V:2] z8 | 
[V:3] z8 | 
[V:4] GABGc2BA | 
[V:5] E,4C,2D,2 | 
[V:1] z8 | 
[V:2] z8 | 
[V:3] z8 | 
[V:4] BAA4^G2 | 
[V:5] D,C,B,,A,,B,,4 | 
[V:1] z8 | 
[V:2] z8 | 
[V:3] z8 | 
[V:4] A3Bcdef | 
[V:5] A,,2A,2F,2G,2- | 
[V:1] z8 | 
[V:2] z8 | 
[V:3] z8 | 
[V:4] e2d4^c2 | 
[V:5] G,F,E,D,E,4 | 
[V:1] z8 | 
[V:2] z8 | 
[V:3] z8 | 
[V:4] d4B2c2- | 
[V:5] D,3E,F,G,A,B, | 
[V:1] z8 | 
[V:2] z8 | 
[V:3] z8 | 
[V:4] cBAGA4 | 
[V:5] A,2G,4^F,2 | 
[V:1] z8 ||  
[V:2] z8 ||  
[V:3] z8 ||  
[V:4] G8 ||  
[V:5] G,8 ||  
[V:1]  [K:C] [K:clef=treble][M:2/1]G4E2F2- | 
[V:2]  [K:C] [K:clef=treble-8][M:2/1]z8 | 
[V:3]  [K:C] [K:clef=treble-8][M:2/1]z8 | 
[V:4]  [K:C] [K:clef=treble-8][M:2/1]z8 | 
[V:5]  [K:C] [K:clef=bass][M:2/1]z8 | 
[V:1] FEDCD4 | 
[V:2] z8 | 
[V:3] z8 | 
[V:4] z8 | 
[V:5] z8 | 
[V:1] C4z2F2 | 
[V:2] e4c2d2- | 
[V:3] z8 | 
[V:4] z8 | 
[V:5] z8 | 
[V:1] G2A3Bc2 | 
[V:2] d2cBA4 | 
[V:3] z8 | 
[V:4] z8 | 
[V:5] z8 | 
[V:1] B3GA2G2 | 
[V:2] G4z2c2 | 
[V:3] z8 | 
[V:4] z8 | 
[V:5] z8 | 
[V:1] z2B2c2d2- | 
[V:2] d2e4f2 | 
[V:3] z8 | 
[V:4] z8 | 
[V:5] z8 | 
[V:1] d2B2c2d2- | 
[V:2] d2e4f2 | 
[V:3] z8 | 
[V:4] z8 | 
[V:5] z8 | 
[V:1] d2cBcBd2- | 
[V:2] d2e4dc | 
[V:3] z8 | 
[V:4] z8 | 
[V:5] z8 | 
[V:1] d2c4B2 | 
[V:2] dce2d4 | 
[V:3] z8 | 
[V:4] z8 | 
[V:5] z8 | 
[V:1] c2BAG4 | 
[V:2] c4z2c2 | 
[V:3] z8 | 
[V:4] z8 | 
[V:5] z8 | 
[V:1] z2G2A2B2- | 
[V:2] d2e2f2d2 | 
[V:3] z8 | 
[V:4] z8 | 
[V:5] z8 | 
[V:1] B2G2A2B2- | 
[V:2] e4f2d2 | 
[V:3] z8 | 
[V:4] z8 | 
[V:5] z8 | 
[V:1] B2AGAGB2- | 
[V:2] e2f3edc | 
[V:3] z8 | 
[V:4] z8 | 
[V:5] z8 | 
[V:1] BAA4^G2 | 
[V:2] dcBAB4 | 
[V:3] z8 | 
[V:4] z8 | 
[V:5] z8 | 
[V:1] A2c3BAG | 
[V:2] A8- | 
[V:3] z8 | 
[V:4] z8 | 
[V:5] z8 | 
[V:1] A2GFE2A,2 | 
[V:2] A8 | 
[V:3] z8 | 
[V:4] z8 | 
[V:5] z8 | 
[V:1] z2c2d2cB | 
[V:2] z2e2f2ed | 
[V:3] z8 | 
[V:4] z8 | 
[V:5] z8 | 
[V:1] A2B4A2 | 
[V:2] c2d3cBA | 
[V:3] z8 | 
[V:4] z8 | 
[V:5] z8 | 
[V:1] B2d3cBA | 
[V:2] G4z2d2 | 
[V:3] z8 | 
[V:4] z8 | 
[V:5] z8 | 
[V:1] G2FED2F2 | 
[V:2] e2dcBAd2- | 
[V:3] z8 | 
[V:4] z8 | 
[V:5] z8 | 
[V:1] E4D2A2 | 
[V:2] d2c2d2c2 | 
[V:3] z8 | 
[V:4] z8 | 
[V:5] z8 | 
[V:1] _B2AGFGAB | 
[V:2] d2cBA2c2 | 
[V:3] z8 | 
[V:4] z8 | 
[V:5] z8 | 
[V:1] A2G3^FF2 | 
[V:2] d2cBAGA2 | 
[V:3] z8 | 
[V:4] z8 | 
[V:5] z8 | 
[V:1] G8 ||  
[V:2] G8 ||  
[V:3] z8 ||  
[V:4] z8 ||  
[V:5] z8 ||  



